assets/Rolled-up newspaper/Flat/rolled-up_newspaper_flat.svg

<svg width="32" height="32" viewBox="0 0 32 32" fill="none" xmlns="http://www.w3.org/2000/svg">
<g clip-path="url(#clip0_18_21155)">
<path d="M18.48 4.75876L2.82068 20.5728L11.5 29L27.17 13.3188C29.53 10.9488 29.52 7.10876 27.15 4.74876C27.14 4.73876 27.13 4.72876 27.12 4.71876C24.73 2.34876 20.87 2.35876 18.49 4.74876C18.49 4.74876 18.48 4.74876 18.48 4.75876Z" fill="#B4ACBC"/>
<path d="M11.3787 29.2567C13.1895 27.4459 12.7263 24.0468 10.3441 21.6646C7.96192 19.2824 4.56282 18.8192 2.75202 20.63C0.941214 22.4408 1.40442 25.8399 3.78662 28.2221C6.16882 30.6043 9.56792 31.0675 11.3787 29.2567Z" fill="#CDC4D6"/>
<path d="M5.99997 23.0605C4.99997 23.0605 4.99997 23.3105 4.08215 24.4087C4.24882 24.9087 4.97275 26.6868 6.08215 26.9087C8.58215 27.4087 8.58215 26.9087 8.58215 25.4087C8.58215 23.9087 6.99997 23.0605 5.99997 23.0605Z" fill="#B4ACBC"/>
<path d="M7.18166 30.1939C7.48047 30.2026 7.79051 30.1921 8.10933 30.1573C10.6547 29.879 11.8484 27.6123 11.7496 25.7969C11.6373 23.7349 10.2577 22.0316 8.64017 21.0786C7.03749 20.1344 5.08892 19.8692 3.8438 20.8653C2.51252 21.9304 2.17157 23.3537 2.41154 24.688C2.64915 26.0092 3.455 27.2499 4.42857 28.0078C6.06787 29.284 7.63204 29.2471 8.74329 28.5345C9.83198 27.8363 10.4524 26.5046 10.2466 25.2694C9.97856 23.6614 8.81092 22.613 7.5959 22.1075C6.98751 21.8544 6.35562 21.7318 5.79849 21.7445C5.24868 21.7571 4.73395 21.9034 4.40537 22.232C3.81665 22.8207 3.60271 23.5824 3.71016 24.3612C3.81682 25.1343 4.23772 25.9179 4.90538 26.5855C5.45617 27.1363 6.314 27.4624 7.07734 27.4925C7.82712 27.522 8.6184 27.2585 8.82403 26.472C9.04886 25.612 8.91746 24.9157 8.57635 24.3652C8.24067 23.8235 7.71675 23.4465 7.19396 23.1851C6.1302 22.6532 5.23661 22.7419 4.62323 23.1518C4.4784 23.2485 4.35073 23.3626 4.24184 23.4885C4.32421 23.1566 4.49458 22.8499 4.75893 22.5856C4.95875 22.3857 5.32296 22.2556 5.80994 22.2444C6.2896 22.2334 6.85236 22.3398 7.40384 22.5692C8.50852 23.0288 9.52139 23.9597 9.75337 25.3516C9.92443 26.3779 9.40387 27.5169 8.47337 28.1136C7.56543 28.6959 6.23223 28.7783 4.73571 27.6132C3.85335 26.9263 3.11812 25.792 2.90364 24.5995C2.69151 23.42 2.98745 22.1908 4.15616 21.2557C5.15946 20.453 6.8544 20.6069 8.38637 21.5094C9.90347 22.4032 11.1496 23.9743 11.2503 25.8241C11.3385 27.4432 10.2729 29.4178 8.05499 29.6602C6.93606 29.7825 5.92753 29.5801 5.1547 29.3187C5.81008 29.7322 6.49867 30.0257 7.18166 30.1939ZM5.25893 26.232C4.79438 25.7674 4.47597 25.2555 4.31225 24.7522C4.25447 24.3613 4.45634 23.8646 4.90101 23.5675C5.33661 23.2765 6.03412 23.1642 6.97035 23.6323C7.44757 23.8709 7.88255 24.1948 8.15133 24.6286C8.41467 25.0536 8.53328 25.6073 8.34029 26.3455C8.22597 26.7828 7.76726 27.0193 7.09702 26.9928C6.44034 26.967 5.70815 26.6812 5.25893 26.232Z" fill="#B4ACBC"/>
<path d="M4.70764 23.0985C5.3173 22.7352 6.17803 22.6772 7.19398 23.1851C7.71677 23.4465 8.24069 23.8235 8.57637 24.3652C8.91748 24.9157 9.04888 25.612 8.82405 26.472C8.65747 27.1091 8.10653 27.4031 7.50468 27.476C7.86738 25.5766 6.16253 23.8313 4.70764 23.0985Z" fill="#B4ACBC"/>
<path d="M7.89542 18.7164C13.7097 23.5923 12.7716 27.5695 11.5 29C17.5 22.1667 29.3 8.00002 28.5 6.00002C27.7921 4.23032 25.2051 2.85211 23.5795 2.21177C23.2271 2.07294 22.831 2.16901 22.5632 2.43685L7.80708 17.1929C7.37943 17.6206 7.43201 18.3278 7.89542 18.7164Z" fill="#B4ACBC"/>
<path d="M11.5569 21.9793C13.2304 25.6132 12.2503 28.1951 11.3131 29.3201C16.6464 23.9867 28.2101 13.5799 29.5 11C31.0011 7.99782 29.1223 4.99567 27.246 2.83908C26.3304 1.78675 24.7046 1.81882 23.7326 2.81934L9.05471 17.929C8.79792 18.1933 8.89504 18.6683 9.19469 18.8828C9.85699 19.357 10.7815 20.2954 11.5569 21.9793Z" fill="#F3EEF8"/>
<path d="M20.23 8.34875L15.83 12.6588C15.64 12.8288 15.63 13.1188 15.8 13.3088C15.84 13.3588 15.9 13.3888 15.96 13.4188C18.02 14.3188 19.51 16.1588 19.96 18.3588C20.01 18.6088 20.26 18.7588 20.51 18.7088C20.6 18.6888 20.68 18.6488 20.74 18.5788L24.9 14.2388C24.98 14.1488 25.03 14.0288 25.03 13.9088C25.03 12.9988 24.56 9.04875 20.61 8.22875C20.47 8.20875 20.33 8.24875 20.23 8.34875Z" fill="#9B9B9B"/>
<g opacity="0.7">
<path d="M24.7685 3.99569C24.5127 3.89161 24.221 4.01458 24.1169 4.27035C24.0128 4.52613 24.1358 4.81785 24.3916 4.92194C26.5326 5.79317 28.0247 7.75795 28.2934 10.0471C28.3256 10.3214 28.5741 10.5176 28.8483 10.4854C29.1226 10.4532 29.3188 10.2048 29.2866 9.93051C28.9754 7.27967 27.2475 5.00445 24.7685 3.99569Z" fill="#9B9B9B"/>
<path d="M22.4156 6.08503C22.4839 5.81748 22.7562 5.656 23.0238 5.72436L23.0251 5.7247L23.0267 5.72513L23.031 5.72626L23.0436 5.72966C23.0536 5.73244 23.0672 5.73628 23.0839 5.74127C23.1173 5.75123 23.1636 5.76579 23.2211 5.78571C23.336 5.82552 23.496 5.88688 23.6874 5.9759C24.0698 6.15374 24.5809 6.4436 25.1079 6.89546C26.1712 7.80703 27.2732 9.35673 27.5373 11.8971C27.5659 12.1718 27.3664 12.4176 27.0917 12.4461C26.817 12.4747 26.5712 12.2752 26.5427 12.0005C26.3067 9.73087 25.3388 8.41057 24.4571 7.65464C24.0116 7.27275 23.5814 7.02948 23.2657 6.88263C23.1081 6.80932 22.9798 6.76044 22.8937 6.7306C22.8507 6.71569 22.8183 6.70558 22.7981 6.69957L22.7773 6.69357L22.7757 6.6931L22.7744 6.69276C22.5079 6.62363 22.3474 6.35196 22.4156 6.08503Z" fill="#9B9B9B"/>
<path d="M13.8317 14.8237C13.9284 14.5651 14.2164 14.4338 14.4751 14.5304C14.1828 15.3123 14.4751 14.5304 14.4751 14.5304L14.4763 14.5309L14.4779 14.5315L14.4818 14.533L14.4932 14.5375C14.5023 14.5411 14.5145 14.546 14.5294 14.5522C14.5593 14.5648 14.6006 14.5828 14.6518 14.6068C14.7541 14.6549 14.8963 14.7272 15.0667 14.8284C15.4073 15.0306 15.8622 15.3491 16.3363 15.8205C17.2897 16.7685 18.3045 18.3197 18.6354 20.7411C18.6728 21.0147 18.4813 21.2668 18.2077 21.3042C17.9341 21.3416 17.682 21.1501 17.6446 20.8765C17.3455 18.6879 16.4403 17.3341 15.6312 16.5296C15.2241 16.1248 14.8371 15.8551 14.5561 15.6882C14.4157 15.6049 14.3022 15.5475 14.2265 15.5119C14.1887 15.4941 14.1604 15.4819 14.143 15.4746L14.1252 15.4673L14.124 15.4668L14.123 15.4664C13.8656 15.369 13.7352 15.0817 13.8317 14.8237Z" fill="#9B9B9B"/>
</g>
</g>
<defs>
<clipPath id="clip0_18_21155">
<rect width="32" height="32" fill="white"/>
</clipPath>
</defs>
</svg>

<svg xmlns="http://www.w3.org/2000/svg" width="32" height="32" fill="none"><g clip-path="url(#a)"><path fill="#B4ACBC" d="M18.48 4.759 2.82 20.573 11.5 29l15.67-15.681a6.063 6.063 0 0 0-.02-8.57l-.03-.03a6.108 6.108 0 0 0-8.63.03s-.01 0-.01.01Z"/><path fill="#CDC4D6" d="M11.379 29.257c1.81-1.811 1.347-5.21-1.035-7.592-2.382-2.383-5.781-2.846-7.592-1.035-1.81 1.81-1.348 5.21 1.035 7.592 2.382 2.382 5.78 2.845 7.592 1.035Z"/><path fill="#B4ACBC" d="M6 23.06c-1 0-1 .25-1.918 1.349.167.5.89 2.278 2 2.5 2.5.5 2.5 0 2.5-1.5S7 23.06 6 23.06Z"/><path fill="#B4ACBC" d="M7.182 30.194c.298.009.609-.002.927-.037 2.546-.278 3.74-2.545 3.64-4.36-.112-2.062-1.491-3.765-3.109-4.718-1.603-.945-3.551-1.21-4.796-.214-1.331 1.065-1.672 2.489-1.432 3.823.237 1.321 1.043 2.562 2.017 3.32 1.639 1.276 3.203 1.24 4.314.527 1.089-.699 1.71-2.03 1.504-3.266-.268-1.608-1.436-2.656-2.651-3.161-.608-.254-1.24-.376-1.798-.364-.55.013-1.064.16-1.393.488-.588.589-.802 1.35-.695 2.13.107.772.528 1.556 1.195 2.224.551.55 1.409.876 2.172.907.75.029 1.541-.234 1.747-1.021.225-.86.093-1.556-.248-2.107-.335-.541-.86-.918-1.382-1.18-1.064-.532-1.957-.443-2.57-.033-.146.096-.273.21-.382.336a1.92 1.92 0 0 1 .517-.902c.2-.2.564-.33 1.05-.342.48-.01 1.043.096 1.595.325 1.105.46 2.117 1.39 2.35 2.783.17 1.026-.35 2.165-1.28 2.762-.909.582-2.242.664-3.738-.5-.883-.688-1.618-1.822-1.832-3.015-.212-1.179.083-2.408 1.252-3.343 1.003-.803 2.698-.65 4.23.253 1.517.894 2.764 2.465 2.864 4.315.088 1.62-.977 3.594-3.195 3.836-1.119.122-2.127-.08-2.9-.341a6.92 6.92 0 0 0 2.027.875Zm-1.923-3.962c-.465-.465-.783-.976-.947-1.48-.058-.39.144-.887.589-1.184.436-.292 1.133-.404 2.07.064.477.239.912.563 1.18.997.264.425.382.978.19 1.716-.115.438-.574.674-1.244.648-.657-.026-1.389-.312-1.838-.761Z"/><path fill="#B4ACBC" d="M4.708 23.099c.61-.364 1.47-.422 2.486.086.523.262 1.047.639 1.382 1.18.341.55.473 1.247.248 2.107-.167.637-.717.931-1.32 1.004.363-1.9-1.341-3.645-2.796-4.377ZM7.895 18.716C13.71 23.592 12.772 27.57 11.5 29c6-6.833 17.8-21 17-23-.708-1.77-3.295-3.148-4.92-3.788a.947.947 0 0 0-1.017.225L7.807 17.193c-.428.428-.375 1.135.088 1.523Z"/><path fill="#F3EEF8" d="M11.557 21.98c1.673 3.633.693 6.215-.244 7.34C16.646 23.987 28.21 13.58 29.5 11c1.501-3.002-.378-6.004-2.254-8.16-.916-1.053-2.541-1.021-3.513-.02L9.055 17.928c-.257.264-.16.74.14.954.662.474 1.586 1.412 2.362 3.096Z"/><path fill="#9B9B9B" d="m20.23 8.349-4.4 4.31c-.19.17-.2.46-.03.65.04.05.1.08.16.11 2.06.9 3.55 2.74 4 4.94a.46.46 0 0 0 .78.22l4.16-4.34c.08-.09.13-.21.13-.33 0-.91-.47-4.86-4.42-5.68a.442.442 0 0 0-.38.12Z"/><g fill="#9B9B9B" opacity=".7"><path d="M24.768 3.996a.5.5 0 1 0-.376.926 6.33 6.33 0 0 1 3.901 5.125.5.5 0 0 0 .994-.116 7.33 7.33 0 0 0-4.518-5.935ZM22.416 6.085a.5.5 0 0 1 .608-.36h.003l.004.001.013.004a2.146 2.146 0 0 1 .177.056c.115.04.275.1.466.19.383.178.894.468 1.42.92 1.064.911 2.166 2.46 2.43 5.001a.5.5 0 1 1-.994.104c-.236-2.27-1.204-3.59-2.086-4.346a5.245 5.245 0 0 0-1.191-.772 3.987 3.987 0 0 0-.468-.183l-.02-.006h-.002l-.002-.001a.5.5 0 0 1-.358-.608ZM13.832 14.824a.5.5 0 0 1 .643-.294c-.292.782 0 0 0 0h.001l.002.002.004.001.011.005a2.21 2.21 0 0 1 .159.069c.102.048.244.12.415.221.34.203.795.521 1.27.992.953.948 1.968 2.5 2.298 4.921a.5.5 0 0 1-.99.136c-.3-2.19-1.205-3.543-2.014-4.347a5.585 5.585 0 0 0-1.075-.842 3.934 3.934 0 0 0-.413-.213l-.018-.008h-.002a.5.5 0 0 1-.291-.643Z"/></g></g><defs><clipPath id="a"><path fill="#fff" d="M0 0h32v32H0z"/></clipPath></defs></svg>
